!!!COM: Gutierrez, Manuel Maria
!!!CDT: 1829-1887
!!!OTL: National Anthem, Costa Rica
!!!ENC: Davis, Matthew J.
!!Vocal Line Only
**kern
*clefG2
*k[b-e-a-]
*E-:
*M4/4
=1-
1r
=2
1r
=3
1r
=4
1r
=5
1r
=6
1r
=7
1r
=8
1r
=9
2r
4r
8.B-
16B-
=10
4e-
8.B-
16B-
4g
8.e-
16e-
=11
4b-
4b-
4r
8.g
16g
=12
4g
8.f
16f
4f
8.en
16f
=13
2g
4r
8.B-
16B-
=14
4e-
8.B-
16B-
4g
8.e-
16e-
=15
4cc
4cc
4r
8.cc
16cc
=16
4b-
8.g
16e-
4f
8.d
16B-
=17
4e-
4r
4r
==18
8.cc
16cc
=19
4b-
8dd
8dd
4dd
8.cc
16b-
=20
4g
8e-
8e-
8e-
8r
8.cc
16cc
=21
4bn
8.bn
16bn
4bn
8.cc
16dd
=22
2g
6r
6B-
6c
6d
6e-
6f
=23
4g
8.e-
16e-
4a-
8.f
16f
=24
4b-
8g
16r
16b-
4ee-
8.dd
16cc
=25
4cc
8.b-
16g
8b-
8a-
8g
8f
=26
4e-
8.g
16b-
4ee-
8.dd
16cc
=27
4cc
8.b-
16g
8b-
8a-
8g
8f
=28
4e-
4r
4r
==29
8.b-
16b-
=30
2.a
8.g-
16g-
=31
2.f
8.g-
16g-
=32
2.f
8.e-
16e-
=33
2d
6r
6B-
6c
6d
6e-
6f
=34
4g
8.e-
16e-
4a-
8.f
16f
=35
4b-
8g
16r
16b-
4ee-
8.dd
16cc
=36
4cc
8b-
16r
16g
8b-
8a-
8g
8f
=37
4e-
8.g
16b-
4ee-
8.dd
16cc
=38
4cc
8b-
16r
16g
8b-
8a-
8g
8f
=39
4e-
4r
4r
8.B-
16B-
=40
4e-
8.B-
16B-
4g
8.e-
16e-
=41
4b-
4b-
4r
8.g
16g
=42
4g
8.f
16f
4f
8.en
16f
=43
2g
4r
8.B-
16B-
=44
4e-
8.B-
16B-
4b-
8.e-
16e-
=45
4cc
4cc
4r
8.cc
16cc
=46
4b-
8.g
16e-
4f
8.d
16B-
=47
4e-
4r
4r
==|!
*-
